!!!id: 18xx:2882
!!!COM: Stefani, Józef
!!!OTL: Stabat Mater – Andante
!!!PDT:
!!!SMS-siglum: PL-Wtm
!!!SMS-shelfmark: R 1564
!!!NIFC-rismID: 1001115293
!!!URL-scan: http://repozytorium.nifc.pl/skany/pl-wtm-nut--r1564
!!!ONB-nifc: UWAGA: części Stabat Mater: 1. Andante, 2. Andantino, 3. Aria (Adagio), 4. Adagio, 5. Aria per il Basso, 6. Adagio, 7. Larghetto, 8. Aria per il Tenore, 9. Duetino (per il Soprano e Alto con Choro), 10. Arietta per il Alto, 11. Andantino (w źródle jako No. 10 ½), 12. Finale (w źródle jako No. 11)
!!!SMS-variant:
!!!SMS-altvar:
!!!OMD:Andante.
**kern	**dynam	**kern	**dynam	**kern	**dynam	**kern	**kern	**dynam	**kern	**text	**kern	**text	**dynam	**kern	**text	**dynam	**kern	**kern
*part9	*part9	*part8	*part8	*part7	*part7	*part6	*part5	*part5	*part4	*part4	*part3	*part3	*part3	*part2	*part2	*part2	*part1	*part1
*staff10	*	*staff9	*	*staff8	*	*staff7	*staff6	*	*staff5	*staff5	*staff4	*staff4	*	*staff3	*staff3	*	*staff2	*staff1
*I"Baſsi	*	*I"Baſsi	*	*I"Viole	*	*I"Violini	*I"Violini	*	*I"Baſso	*	*I"Tenore	*	*	*I"Soprano	*	*	*I"Harpha	*I"Harpha
*clefF4	*	*clefF4	*	*clefC3	*	*clefG2	*clefG2	*	*clefF4	*	*clefC4	*	*	*clefG2	*	*	*clefF4	*clefG2
*Trd0c0	*	*	*	*	*	*	*	*	*	*	*	*	*	*	*	*	*	*
*k[b-e-a-d-]	*	*k[b-e-a-d-]	*	*k[b-e-a-d-]	*	*k[b-e-a-d-]	*k[b-e-a-d-]	*	*k[b-e-a-d-]	*	*k[b-e-a-d-]	*	*	*k[b-e-a-d-]	*	*	*k[b-e-a-d-]	*k[b-e-a-d-]
*M4/2	*	*M4/2	*	*M4/2	*	*M4/2	*M4/2	*	*M4/2	*	*M4/2	*	*	*M4/2	*	*	*M4/2	*M4/2
*all\right	*	*all\right	*	*all\right	*	*all\right	*all\right	*	*all\right	*	*all\right	*	*	*all\right	*	*	*all\right	*all\right
*2\right	*	*2\right	*	*2\right	*	*2\right	*2\right	*	*2\right	*	*2\right	*	*	*2\right	*	*	*2\right	*2\right
=1	=1	=1	=1	=1	=1	=1	=1	=1	=1	=1	=1	=1	=1	=1	=1	=1	=1	=1
*	*	*	*	*	*	*	*	*	*	*	*	*	*	*	*	*	*Xtuplet	*
!	!	!LO:TX:t=P:problem:dublowanie partii z dołu oznaczone dwiema ukośnymi kreskami	!	!	!	!	!	!	!	!	!	!	!	!	!	!	!	!LO:TUP:problem:brak klamry, numer:global
1r	.	1ryy	.	1r	.	1r	1r	.	1r	.	1r	.	.	1r	.	.	6F\	6f/
.	.	.	.	.	.	.	.	.	.	.	.	.	.	.	.	.	6A-\	6a-/
.	.	.	.	.	.	.	.	.	.	.	.	.	.	.	.	.	6c\	6cc/
.	.	.	.	.	.	.	.	.	.	.	.	.	.	.	.	.	6f>\	6ff/
.	.	.	.	.	.	.	.	.	.	.	.	.	.	.	.	.	6a->\	6aa-/
.	.	.	.	.	.	.	.	.	.	.	.	.	.	.	.	.	6cc>\	6ccc/
4F\	f	4Fyy\	fyy	4f 4A-/	f	4cc 4f/	4ff 4a-\	f	1r	.	1r	.	.	1r	.	.	2ff> 2cc> 2a-> 2f>\	2fff 2ccc 2aa-/
4r	.	4ryy	.	4r	.	4r	4r	.	.	.	.	.	.	.	.	.	.	.
2r	.	2ryy	.	2r	.	2r	2r	.	.	.	.	.	.	.	.	.	2r	2r
=2	=2	=2	=2	=2	=2	=2	=2	=2	=2	=2	=2	=2	=2	=2	=2	=2	=2	=2
!	!	!	!	!	!	!	!	!	!	!	!	!	!	!	!	!	!	!LO:TX:a:t=N°I Andante, Stabat Mater
1r	.	1ryy	.	1r	.	1r	1r	.	1r	.	1r	.	.	1r	.	.	6D-\	6d-/
.	.	.	.	.	.	.	.	.	.	.	.	.	.	.	.	.	6F\	6f/
.	.	.	.	.	.	.	.	.	.	.	.	.	.	.	.	.	6A-\	6a-/
.	.	.	.	.	.	.	.	.	.	.	.	.	.	.	.	.	6d->\	6dd-/
.	.	.	.	.	.	.	.	.	.	.	.	.	.	.	.	.	6f>\	6ff/
.	.	.	.	.	.	.	.	.	.	.	.	.	.	.	.	.	6a->\	6aa-/
4D-\	.	4D-yy\	.	4f 4A-/	.	4dd- 4f/	4ff 4a-\	.	1r	.	1r	.	.	1r	.	.	2dd-> 2a-> 2f> 2d->\	2ddd- 2aa- 2ff/
4r	.	4ryy	.	4r	.	4r	4r	.	.	.	.	.	.	.	.	.	.	.
2r	.	2ryy	.	2r	.	2r	2r	.	.	.	.	.	.	.	.	.	2r	2r
=3	=3	=3	=3	=3	=3	=3	=3	=3	=3	=3	=3	=3	=3	=3	=3	=3	=3	=3
1r	.	1ryy	.	1r	.	1r	1r	.	1r	.	1r	.	.	1r	.	.	6BB-\	6B-/
.	.	.	.	.	.	.	.	.	.	.	.	.	.	.	.	.	6D-\	6d-/
.	.	.	.	.	.	.	.	.	.	.	.	.	.	.	.	.	6F\	6f/
.	.	.	.	.	.	.	.	.	.	.	.	.	.	.	.	.	6G\	6g/
.	.	.	.	.	.	.	.	.	.	.	.	.	.	.	.	.	6B-\	6b-/
.	.	.	.	.	.	.	.	.	.	.	.	.	.	.	.	.	6d-\	6dd-/
4BB-/	.	4BB-yy/	.	4d-\	.	4ff 4b-\	4gg 4b-\	.	1r	.	1r	.	.	1r	.	.	4f\	4ff/
4r	.	4ryy	.	4r	.	4r	4r	.	.	.	.	.	.	.	.	.	4r	4r
2r	.	2ryy	.	2r	.	2r	2r	.	.	.	.	.	.	.	.	.	4g> 4f> 4d-> 4B->\	4gg 4ff 4dd-/
.	.	.	.	.	.	.	.	.	.	.	.	.	.	.	.	.	4r	4r
=4	=4	=4	=4	=4	=4	=4	=4	=4	=4	=4	=4	=4	=4	=4	=4	=4	=4	=4
!!LO:LB:g=original
*	*	*	*	*	*	*	*	*	*	*	*	*	*	*	*	*	*	*Xtuplet
!LO:TX:t=P:problem:od tego taktu pominięty jest zapis partii vlc są na jednej linii	!	!LO:TX:t=P:problem:od tego taktu wiolonczela i kontrabas są na jednej linii	!	!	!	!	!	!	!	!	!	!	!	!	!	!	!	!
1r	.	1ryy	.	1r	.	1r	1r	.	1r	.	1r	.	.	1r	.	.	6C\	6c/
.	.	.	.	.	.	.	.	.	.	.	.	.	.	.	.	.	6En\	6en/
.	.	.	.	.	.	.	.	.	.	.	.	.	.	.	.	.	6G\	6g/
.	.	.	.	.	.	.	.	.	.	.	.	.	.	.	.	.	6c\	6cc/
.	.	.	.	.	.	.	.	.	.	.	.	.	.	.	.	.	6en>\	6een/
.	.	.	.	.	.	.	.	.	.	.	.	.	.	.	.	.	6g>\	6gg/
4C/	.	4Cyy/	.	4en 4G/	.	4gg 4cc\	4ccc 4een\	.	1r;	.	1r;	.	.	1r;	.	.	2cc> 2g> 2e> 2c>\	2ccc 2gg 2ee/
4r	.	4ryy	.	4r	.	4r	4r	.	.	.	.	.	.	.	.	.	.	.
2r;	.	2ryy;	.	2r;	.	2r;	2r;	.	.	.	.	.	.	.	.	.	2r;	2r;
=5!|:	=5!|:	=5!|:	=5!|:	=5!|:	=5!|:	=5!|:	=5!|:	=5!|:	=5!|:	=5!|:	=5!|:	=5!|:	=5!|:	=5!|:	=5!|:	=5!|:	=5!|:	=5!|:
!!!OMD: Adagio
4F\	p	4Fyy\	pyy	4r	.	4r	4r	.	2F\	Sta-	2c\	.	.	2a-/	Sta-	.	4F 4FF/	6r
.	.	.	.	.	.	.	.	.	.	.	.	.	.	.	.	.	.	6a- 6f/
4r	.	4ryy	.	4f\	.	4c/	4a-/	p	.	.	.	.	.	.	.	.	4r	.
.	.	.	.	.	.	.	.	.	.	.	.	.	.	.	.	.	.	6c/
4A-\	.	4A-yy\	.	4r	.	4r	4r	.	2A-\	-bat	2c\	.	.	2f/	-bat	.	4A- 4AA-\	6r
.	.	.	.	.	.	.	.	.	.	.	.	.	.	.	.	.	.	6f/
4r	.	4ryy	.	4A-/	.	4c/	4f/	.	.	.	.	.	.	.	.	.	4r	.
.	.	.	.	.	.	.	.	.	.	.	.	.	.	.	.	.	.	6c/
4c\	.	4cyy\	.	4r	.	4r	4en/	.	2c\	Ma-	2c\	.	.	(4en/	Ma-	.	4C 4CC/	6r
.	.	.	.	.	.	.	.	.	.	.	.	.	.	.	.	.	.	6en/
4r	.	4ryy	.	4c\	.	4c/	4c/	.	.	.	.	.	.	4c/)	.	.	4r	.
.	.	.	.	.	.	.	.	.	.	.	.	.	.	.	.	.	.	6c/
(4C/	.	(yy4Cyy/	.	4r	.	4r	4cc\	.	(4C/	-ter	2c\	.	.	(4cc\	-ter	.	4En 4EEn/	6r
.	.	.	.	.	.	.	.	.	.	.	.	.	.	.	.	.	.	6cc 6e/
4En\)	.	4Enyy\)yy	.	4c\	.	4g/	4b-\	.	4En\)	.	.	.	.	4b-\)	.	.	4r	.
.	.	.	.	.	.	.	.	.	.	.	.	.	.	.	.	.	.	6b-/ 6g/
=6	=6	=6	=6	=6	=6	=6	=6	=6	=6	=6	=6	=6	=6	=6	=6	=6	=6	=6
!	!	!	!	!	!	!	!	!	!	!	!	!	!	!	!	!LO:HP:a	!	!
4F\	.	4Fyy\	.	4r	.	4r	4r	.	2F\	do-	2c\	.	.	2a-/	do-	<	4F 4FF/	6r
.	.	.	.	.	.	.	.	.	.	.	.	.	.	.	.	.	.	6a- 6f/
4r	.	4ryy	.	4c\	.	4f/	4a-/	.	.	.	.	.	.	.	.	.	4r	.
.	.	.	.	.	.	.	.	.	.	.	.	.	.	.	.	.	.	6c/
4D-\	.	4D-yy\	.	4r	.	4r	4r	.	2D-\	-lo-	2f\	.	.	2b-\	-lo-	.	4D- 4DD-/	6r
.	.	.	.	.	.	.	.	.	.	.	.	.	.	.	.	.	.	6b- 6f/
4r	.	4ryy	.	4d-\	.	4f/	4b-\	.	.	.	.	.	.	.	.	.	4r	.
.	.	.	.	.	.	.	.	.	.	.	.	.	.	.	.	.	.	6d-/
!	!	!	!	!	!	!	!	!	!	!	!	!	!	!	!	!LO:HP:a	!	!
4C/	.	4Cyy/	.	4r	.	4r	4r	.	2C/	-ro-	2en\	.	.	2cc\	-ro-	[ >	4C 4CC/	6r
.	.	.	.	.	.	.	.	.	.	.	.	.	.	.	.	.	.	6cc 6en/
4r	.	4ryy	.	4c\	.	4en/	4cc\	.	.	.	.	.	.	.	.	.	4r	.
.	.	.	.	.	.	.	.	.	.	.	.	.	.	.	.	.	.	6c/
4C/	.	4Cyy/	.	4r	.	4r	4r	.	2C/	-sa	2e\	.	.	2g/	-sa	.	4C 4CC/	6r
.	.	.	.	.	.	.	.	.	.	.	.	.	.	.	.	.	.	6g 6e/
4r	.	4ryy	.	4c\	.	4e/	4g/	.	.	.	.	.	.	.	.	.	4r	.
.	.	.	.	.	.	.	.	.	.	.	.	.	.	.	.	]	.	6c/
=7	=7	=7	=7	=7	=7	=7	=7	=7	=7	=7	=7	=7	=7	=7	=7	=7	=7	=7
!!LO:PB:g=original
4F\	.	4Fyy\	.	4r	.	4r	4r	.	2F\	Ju-	2c\	.	.	2a-/	Ju-	.	4F 4FF/	6r
.	.	.	.	.	.	.	.	.	.	.	.	.	.	.	.	.	.	6a- 6f/
4r	.	4ryy	.	4c\	.	4f/	4a-/	.	.	.	.	.	.	.	.	.	4r	.
.	.	.	.	.	.	.	.	.	.	.	.	.	.	.	.	.	.	6c/
4A-\	.	4A-yy\	.	4r	.	4r	4r	.	2A-\	-xta	2c\	.	.	2f/	-xta	.	4A- 4AA-\	6r
.	.	.	.	.	.	.	.	.	.	.	.	.	.	.	.	.	.	6f/
4r	.	4ryy	.	4A-/	.	4c/	4f/	.	.	.	.	.	.	.	.	.	4r	.
.	.	.	.	.	.	.	.	.	.	.	.	.	.	.	.	.	.	6c/
4G\	.	4Gyy\	.	4r	.	4r	4r	.	2G\	cru-	2c\	.	.	2e-/	cru-	.	4G 4GG\	6r
.	.	.	.	.	.	.	.	.	.	.	.	.	.	.	.	.	.	6cc 6e-/
4r	.	4ryy	.	4G/	.	4c/	4e-/	.	.	.	.	.	.	.	.	.	4r	.
.	.	.	.	.	.	.	.	.	.	.	.	.	.	.	.	.	.	6c/
4G\	.	4Gyy\	.	4r	.	4r	4r	.	2G\	-cem	2c\	.	.	2e-/	-cem	.	4G 4GG\	6r
.	.	.	.	.	.	.	.	.	.	.	.	.	.	.	.	.	.	6cc 6e-/
4r	.	4ryy	.	4G/	.	4c/	4e-/	.	.	.	.	.	.	.	.	.	4r	.
.	.	.	.	.	.	.	.	.	.	.	.	.	.	.	.	.	.	6c/
=8	=8	=8	=8	=8	=8	=8	=8	=8	=8	=8	=8	=8	=8	=8	=8	=8	=8	=8
4GG/	.	4GGyy/	.	4r	.	4r	4r	.	2G\	la-	2c\	.	.	2dn/	.	.	4G 4GG\	6r
.	.	.	.	.	.	.	.	.	.	.	.	.	.	.	.	.	.	6cc 6f/
4r	.	4ryy	.	4G/	.	4c/	4dn/	.	.	.	.	.	.	.	.	.	4r	.
.	.	.	.	.	.	.	.	.	.	.	.	.	.	.	.	.	.	6dn/
4GG/	.	4GGyy/	.	4r	.	4r	4r	.	2GG/	-cry-	2Bn\	.	.	2g/	.	.	4G 4GG\	6r
.	.	.	.	.	.	.	.	.	.	.	.	.	.	.	.	.	.	6bn 6f/
4r	.	4ryy	.	4G/	.	4Bn/	4g/	.	.	.	.	.	.	.	.	.	4r	.
.	.	.	.	.	.	.	.	.	.	.	.	.	.	.	.	.	.	6d/
4C/	<	4Cyy/	<	4r	.	4r	4r	<	2C/	-mo-	2c\	.	.	2c/	.	.	4C 4CC/	6r
.	.	.	.	.	.	.	.	.	.	.	.	.	.	.	.	.	.	6cc 6e-/
4r	.	4ryy	.	4c/	.	4c/	4c/	.	.	.	.	.	.	.	.	.	4r	.
.	.	.	.	.	.	.	.	.	.	.	.	.	.	.	.	.	.	6c/
4C/	.	4Cyy/	.	4r	.	4r	4r	.	2c\	-sa,	2c\	.	.	2c/	.	.	4C 4CC/	6r
.	.	.	.	.	.	.	.	.	.	.	.	.	.	.	.	.	.	6cc 6e-/
4r	.	4ryy	.	4c/	.	4cc\	4cc\	.	.	.	.	.	.	.	.	.	4r	.
.	[	.	[	.	.	.	.	[	.	.	.	.	.	.	.	.	.	6c/
=9	=9	=9	=9	=9	=9	=9	=9	=9	=9	=9	=9	=9	=9	=9	=9	=9	=9	=9
4F\	sf	4Fyy\	sfyy	4r	.	4r	4r	.	2B-\	Dum	2f\	.	.	2dd-\	.	.	4B- 4BB-\	6r
.	.	.	.	.	.	.	.	.	.	.	.	.	.	.	.	.	.	6dd- 6f/
4r	.	4ryy	.	4B-/	.	4f/	4dd-\	sf	.	.	.	.	.	.	.	.	4r	.
.	.	.	.	.	.	.	.	.	.	.	.	.	.	.	.	.	.	6d-/
4D-\	.	4D-yy\	.	4r	.	4r	4r	.	2A-\	pen-	2f\	.	.	2cc\	.	.	4A- 4AA-\	6r
.	.	.	.	.	.	.	.	.	.	.	.	.	.	.	.	.	.	6cc 6f/
4r	.	4ryy	.	4A-/	.	4f/	4cc\	.	.	.	.	.	.	.	.	.	4r	.
.	.	.	.	.	.	.	.	.	.	.	.	.	.	.	.	.	.	6c/
4C/	.	4Cyy/	.	4r	.	4r	4r	.	2G\	-de-	2en\	.	.	(4.cc\	.	.	4G 4GG/	6r
.	.	.	.	.	.	.	.	.	.	.	.	.	.	.	.	.	.	6b- 6en/
4r	.	4ryy	.	4G/	.	4en/	4b-\	.	.	.	.	.	.	.	.	.	4r	.
.	.	.	.	.	.	.	.	.	.	.	.	.	.	.	.	.	.	6c/
.	.	.	.	.	.	.	.	.	.	.	.	.	.	8b-\)	.	.	.	.
4C/	.	4Cyy/	.	4r	.	4r	4r	.	2F\	-bat	2f\	.	.	2a-/	.	.	4F 4FF/	6r
.	.	.	.	.	.	.	.	.	.	.	.	.	.	.	.	.	.	6a- 6f/
4r	.	4ryy	.	4F/	.	4f/	4a-/	.	.	.	.	.	.	.	.	.	4r	.
.	.	.	.	.	.	.	.	.	.	.	.	.	.	.	.	.	.	6c/
=10	=10	=10	=10	=10	=10	=10	=10	=10	=10	=10	=10	=10	=10	=10	=10	=10	=10	=10
4BB-/	.	4BB-yy/	.	4r	.	4r	4r	.	2BB-/	Fi-	2d-\	.	.	2g/	.	.	4B- 4BB-\	6r
.	.	.	.	.	.	.	.	.	.	.	.	.	.	.	.	.	.	6g 6f/
4r	.	4ryy	.	4B-/	.	4d-/	4g/	.	.	.	.	.	.	.	.	.	4r	.
.	.	.	.	.	.	.	.	.	.	.	.	.	.	.	.	.	.	6d-/
4BBn/	.	4BBnyy/	.	4r	.	4r	4r	.	2BBn/	-li-	2dn\	.	.	2f/	.	.	4Bn 4BBn\	6r
.	.	.	.	.	.	.	.	.	.	.	.	.	.	.	.	.	.	6g 6f/
4r	.	4ryy	.	4G/	.	4dn/	4f/	.	.	.	.	.	.	.	.	.	4r	.
.	.	.	.	.	.	.	.	.	.	.	.	.	.	.	.	.	.	6dn/
4C/	.	4Cyy/	.	4r	.	4r	4r	.	1C	-us	1c	.	.	1en	.	.	4c 4C\	6r
.	.	.	.	.	.	.	.	.	.	.	.	.	.	.	.	.	.	6g 6en/
4r	.	4ryy	.	4G/	.	4c/	4en/	.	.	.	.	.	.	.	.	.	4r	.
.	.	.	.	.	.	.	.	.	.	.	.	.	.	.	.	.	.	6c/
4C/	.	4Cyy/	.	4r	.	4r	4r	.	.	.	.	.	.	.	.	.	4C 4CC/	6r
.	.	.	.	.	.	.	.	.	.	.	.	.	.	.	.	.	.	6g 6e/
4r	.	4ryy	.	4G/	.	4c/	4e/	.	.	.	.	.	.	.	.	.	4r	.
.	.	.	.	.	.	.	.	.	.	.	.	.	.	.	.	.	.	6c/
=11:|!	=11:|!	=11:|!	=11:|!	=11:|!	=11:|!	=11:|!	=11:|!	=11:|!	=11:|!	=11:|!	=11:|!	=11:|!	=11:|!	=11:|!	=11:|!	=11:|!	=11:|!	=11:|!
!!LO:LB:g=original
!	!	!	!	!	!	!	!	!	!	!	!	!	!LO:HP:a	!	!	!	!	!
4C/	p <	4Cyy/	pyy <	4r	p	1r	1r	.	1r	.	2c\	Sta-	<	1r	.	.	1r	1r
4r	.	4ryy	.	4c\	.	.	.	.	.	.	.	.	.	.	.	.	.	.
4C/	.	4Cyy/	.	4r	.	.	.	.	.	.	2c\	-bat	.	.	.	.	.	.
4r	.	4ryy	.	4c\	.	.	.	.	.	.	.	.	[[	.	.	.	.	.
!	!	!	!	!	!	!	!	!	!	!	!	!	!LO:HP:a	!	!	!	!	!
4D-/	[ >	4D-yy/	[ >	4r	.	1r	1r	.	1r	.	2d-\	ma-	>	1r	.	.	1r	1r
4r	.	4ryy	.	4d-\	.	.	.	.	.	.	.	.	.	.	.	.	.	.
4C/	.	4Cyy/	.	4r	.	.	.	.	.	.	2c\	-ter	.	.	.	.	.	.
4r	]	4ryy	]	4c\	.	.	.	.	.	.	.	.	]]	.	.	.	.	.
=12	=12	=12	=12	=12	=12	=12	=12	=12	=12	=12	=12	=12	=12	=12	=12	=12	=12	=12
!	!	!	!	!	!	!	!	!	!	!	!	!	!	!	!	!	!LO:SIC:v:n=2:s=4EEn/	!
4En\	.	4Enyy\	.	4r	.	4r	4r	.	2En\	Sta-	2c\	.	.	2cc\	Sta-	.	4En 4EE-/	6r
.	.	.	.	.	.	.	.	.	.	.	.	.	.	.	.	.	.	6cc 6g/
4r	.	4ryy	.	4c\	.	4g/	4cc\	.	.	.	.	.	.	.	.	.	4r	.
.	.	.	.	.	.	.	.	.	.	.	.	.	.	.	.	.	.	6c/
!	!	!	!	!	!	!	!	!	!	!	!	!	!	!	!	!	!LO:SIC:v:n=2:s=4EEn/	!
4E\	.	4Eyy\	.	4r	.	4r	4r	.	2E\	-bat	2c\	.	.	2b-\	-bat	.	4E 4EE-/	6r
.	.	.	.	.	.	.	.	.	.	.	.	.	.	.	.	.	.	6b- 6g/
4r	.	4ryy	.	4c\	.	4g/	4b-\	.	.	.	.	.	.	.	.	.	4r	.
.	.	.	.	.	.	.	.	.	.	.	.	.	.	.	.	.	.	6c/
4F\	.	4Fyy\	.	4r	.	4r	4r	.	2F\	ma-	2c\	.	.	2a-/	ma-	.	4F 4FF/	6r
.	.	.	.	.	.	.	.	.	.	.	.	.	.	.	.	.	.	6a- 6f/
4r	.	4ryy	.	4c\	.	4f/	4a-\	.	.	.	.	.	.	.	.	.	4r	.
.	.	.	.	.	.	.	.	.	.	.	.	.	.	.	.	.	.	6c/
4A-\	.	4A-yy\	.	4r	.	4r	4r	.	2A-\	-ter	2c\	.	.	2g/	-ter	.	4A- 4AA-\	6r
.	.	.	.	.	.	.	.	.	.	.	.	.	.	.	.	.	.	6f/
4r	.	4ryy	.	4c\	.	4f/	4f/	.	.	.	.	.	.	.	.	.	4r	.
.	.	.	.	.	.	.	.	.	.	.	.	.	.	.	.	.	.	6c/
=13	=13	=13	=13	=13	=13	=13	=13	=13	=13	=13	=13	=13	=13	=13	=13	=13	=13	=13
!	!	!	!	!	!	!	!	!	!	!	!	!	!LO:DY:a	!	!	!	!	!
4C/	<	4Cyy/	<	4r	.	1r	1r	.	1r	.	2c\	do-	<	1r	.	.	1r	1r
4r	.	4ryy	.	4c\	.	.	.	.	.	.	.	.	.	.	.	.	.	.
4C/	.	4Cyy/	.	4r	.	.	.	.	.	.	2c\	-lo-	[	.	.	.	.	.
4r	.	4ryy	.	4c\	.	.	.	.	.	.	.	.	.	.	.	.	.	.
!	!	!	!	!	!	!	!	!	!	!	!	!	!LO:DY:a	!	!	!	!	!
4D-/	[ >	4D-yy/	[ >	4r	.	1r	1r	.	1r	.	2d-\	-ro-	>	1r	.	.	1r	1r
4r	.	4ryy	.	4d-\	.	.	.	.	.	.	.	.	.	.	.	.	.	.
4C/	.	4Cyy/	.	4r	.	.	.	.	.	.	2c\	-sa	]	.	.	.	.	.
4r	]	4ryy	]	4c\	.	.	.	.	.	.	.	.	.	.	.	.	.	.
=14	=14	=14	=14	=14	=14	=14	=14	=14	=14	=14	=14	=14	=14	=14	=14	=14	=14	=14
4En\	.	4Enyy\	.	4r	.	4r	4r	.	2En\	do-	2c\	.	.	2cc\	do-	.	4En 4EEn/	6r
.	.	.	.	.	.	.	.	.	.	.	.	.	.	.	.	.	.	6cc 6g/
4r	.	4ryy	.	4c\	.	4g/	4cc\	.	.	.	.	.	.	.	.	.	4r	.
.	.	.	.	.	.	.	.	.	.	.	.	.	.	.	.	.	.	6c/
4E\	.	4Eyy\	.	4r	.	4r	4r	.	2E\	-lo-	2c\	.	.	2b-\	-lo-	.	4E 4EE/	6r
.	.	.	.	.	.	.	.	.	.	.	.	.	.	.	.	.	.	6b- 6g/
4r	.	4ryy	.	4c\	.	4g/	4b-\	.	.	.	.	.	.	.	.	.	4r	.
.	.	.	.	.	.	.	.	.	.	.	.	.	.	.	.	.	.	6c/
4F\	.	4Fyy\	.	4r	.	4r	4r	.	2F\	-ro-	2c\	.	.	2a-/	-ro-	.	4F 4FF/	6r
.	.	.	.	.	.	.	.	.	.	.	.	.	.	.	.	.	.	6a- 6f/
4r	.	4ryy	.	4c\	.	4f/	4a-/	.	.	.	.	.	.	.	.	.	4r	.
.	.	.	.	.	.	.	.	.	.	.	.	.	.	.	.	.	.	6c/
4A-\	.	4A-yy\	.	4r	.	4r	4r	.	2A-\	-sa	2c\	.	.	2f/	-sa	.	4A- 4AA-\	6r
.	.	.	.	.	.	.	.	.	.	.	.	.	.	.	.	.	.	6f/
4r	.	4ryy	.	4c\	.	4f/	4f/	.	.	.	.	.	.	.	.	.	4r	.
.	.	.	.	.	.	.	.	.	.	.	.	.	.	.	.	.	.	6c/
=15	=15	=15	=15	=15	=15	=15	=15	=15	=15	=15	=15	=15	=15	=15	=15	=15	=15	=15
!!LO:PB:g=original
!	!	!	!	!	!	!	!	!	!	!	!	!	!LO:DY:a	!	!	!	!	!
1r	.	1ryy	.	1r	.	1r	1r	.	1r	.	2e-\	Ju-	<	1r	.	.	1r	1r
.	.	.	.	.	.	.	.	.	.	.	2e-\	-xta	.	.	.	.	.	.
!	!	!	!	!	!	!	!	!	!	!	!	!	!LO:DY:a	!	!	!	!	!
1r	.	1ryy	.	1r	.	1r	1r	.	1r	.	2f-X\	Cru-	[ >	1r	.	.	1r	1r
.	.	.	.	.	.	.	.	.	.	.	2e-\	-cem	]]	.	.	.	.	.
=16	=16	=16	=16	=16	=16	=16	=16	=16	=16	=16	=16	=16	=16	=16	=16	=16	=16	=16
4G\	sfp	4Gyy\	sfpyy	4r	.	4r	4r	.	2G\	Ju-	2e-\	.	.	2ee-\	.	.	4G 4GG\	6r
.	.	.	.	.	.	.	.	.	.	.	.	.	.	.	.	.	.	6ee- 6b-/
4r	.	4ryy	.	4e-\	.	4b-/	4ee-\	sfp	.	.	.	.	.	.	.	.	4r	.
.	.	.	.	.	.	.	.	.	.	.	.	.	.	.	.	.	.	6e-/
4GG/	.	4GGyy/	.	4r	.	4r	4r	.	2G\	-xta	2e-\	.	.	2dd-\	.	.	4G 4GG\	6r
.	.	.	.	.	.	.	.	.	.	.	.	.	.	.	.	.	.	6dd-X 6b-/
4r	.	4ryy	.	4e-\	.	4b-/	4dd-X\	.	.	.	.	.	.	.	.	.	4r	.
.	.	.	.	.	.	.	.	.	.	.	.	.	.	.	.	.	.	6e-/
4AA-/	.	4AA-yy/	.	4r	.	4r	4r	.	2A-\	Cru-	2e-\	.	.	2cc\	.	.	4A- 4AA-\	6r
.	.	.	.	.	.	.	.	.	.	.	.	.	.	.	.	.	.	6cc 6a-/
4r	.	4ryy	.	4e-\	.	4a-/	4cc\	.	.	.	.	.	.	.	.	.	4r	.
.	.	.	.	.	.	.	.	.	.	.	.	.	.	.	.	.	.	6e-/
4C/	.	4Cyy/	.	4r	.	4r	4r	.	2c\	-cem	2e-\	.	.	2a-/	.	.	4c 4C\	6r
.	.	.	.	.	.	.	.	.	.	.	.	.	.	.	.	.	.	6ee-/ 6a-/
4r	.	4ryy	.	4e-\	.	4a-/	4a-/	.	.	.	.	.	.	.	.	.	4r	.
.	.	.	.	.	.	.	.	.	.	.	.	.	.	.	.	.	.	6e-/
=17	=17	=17	=17	=17	=17	=17	=17	=17	=17	=17	=17	=17	=17	=17	=17	=17	=17	=17
!	!	!	!	!	!	!	!	!	!	!	!	!	!LO:DY:a	!	!	!	!	!
1r	.	1ryy	.	1r	.	1r	1r	.	1r	.	2e-\	la-	<	1r	.	.	1r	1r
.	.	.	.	.	.	.	.	.	.	.	2e-\	-cry-	.	.	.	.	.	.
!	!	!	!	!	!	!	!	!	!	!	!	!	!LO:DY:a	!	!	!	!	!
1r	.	1ryy	.	1r	.	1r	1r	.	1r	.	2f-X\	-mo-	[ >	1r	.	.	1r	1r
.	.	.	.	.	.	.	.	.	.	.	2e-\	-sa	]]	.	.	.	.	.
=18	=18	=18	=18	=18	=18	=18	=18	=18	=18	=18	=18	=18	=18	=18	=18	=18	=18	=18
4G 4GG\	sfp	4Gyy 4GGyy\	sfpyy	4r	.	4r	4r	.	2G\	la-	2e-\	.	.	2ee-\	.	.	4G 4GG\	6r
.	.	.	.	.	.	.	.	.	.	.	.	.	.	.	.	.	.	6ee- 6b-/
4r	.	4ryy	.	4e-\	.	4b-/	4ee-\	sfp	.	.	.	.	.	.	.	.	4r	.
.	.	.	.	.	.	.	.	.	.	.	.	.	.	.	.	.	.	6e-/
4G 4GG\	.	4Gyy 4GGyy\	.	4r	.	4r	4r	.	2G\	-cry-	2e-\	.	.	2dd-\	.	.	4G 4GG\	6r
.	.	.	.	.	.	.	.	.	.	.	.	.	.	.	.	.	.	6dd- 6b-/
4r	.	4ryy	.	4e-\	.	4b-/	4dd-\	.	.	.	.	.	.	.	.	.	4r	.
.	.	.	.	.	.	.	.	.	.	.	.	.	.	.	.	.	.	6e-/
4AA-/	.	4AA-yy/	.	4r	.	4r	4r	.	2A-\	-mo-	2e-\	.	.	2cc\	.	.	4A- 4AA-\	6r
.	.	.	.	.	.	.	.	.	.	.	.	.	.	.	.	.	.	6cc 6a-/
4r	.	4ryy	.	4e-\	.	4a-/	4cc\	.	.	.	.	.	.	.	.	.	4r	.
.	.	.	.	.	.	.	.	.	.	.	.	.	.	.	.	.	.	6e-/
4C/	.	4Cyy/	.	4r	.	4r	4r	.	2c\	-sa	2e-\	.	.	2a-/	.	.	4c 4C\	6r
.	.	.	.	.	.	.	.	.	.	.	.	.	.	.	.	.	.	6ee- 6a-/
4r	.	4ryy	.	4e-\	.	4a-/	4a-/	.	.	.	.	.	.	.	.	.	4r	.
.	.	.	.	.	.	.	.	.	.	.	.	.	.	.	.	.	.	6e-/
=19	=19	=19	=19	=19	=19	=19	=19	=19	=19	=19	=19	=19	=19	=19	=19	=19	=19	=19
!!LO:LB:g=original
4D-\	.	4D-yy\	.	4r	.	4r	4r	.	2d-\	Dum	2f\	.	.	2f/	.	.	4d- 4D-\	6r
.	.	.	.	.	.	.	.	.	.	.	.	.	.	.	.	.	.	6ee- 6b-/
4r	.	4ryy	.	4d-\	.	4f/	4f/	.	.	.	.	.	.	.	.	.	4r	.
.	.	.	.	.	.	.	.	.	.	.	.	.	.	.	.	.	.	6f/
4D-\	.	4D-yy\	.	4r	.	4r	4r	.	2d-\	pen-	2f\	.	.	2b-/	.	.	4d- 4D-\	6r
.	.	.	.	.	.	.	.	.	.	.	.	.	.	.	.	.	.	6ff 6b-/
4r	.	4ryy	.	4d-\	.	4f/	4b-/	.	.	.	.	.	.	.	.	.	4r	.
.	.	.	.	.	.	.	.	.	.	.	.	.	.	.	.	.	.	6f/
4C/	.	4Cyy/	.	4r	.	4r	4r	.	2c\	-de-	2f\	.	.	2a-/	.	.	4c 4C\	6r
.	.	.	.	.	.	.	.	.	.	.	.	.	.	.	.	.	.	6ff 6a-/
4r	.	4ryy	.	4c\	.	4f/	4a-/	.	.	.	.	.	.	.	.	.	4r	.
.	.	.	.	.	.	.	.	.	.	.	.	.	.	.	.	.	.	6f/
4C/	.	4Cyy/	.	4r	.	4r	4r	.	2c\	-bat	2f\	.	.	2a-/	.	.	4c 4C\	6r
.	.	.	.	.	.	.	.	.	.	.	.	.	.	.	.	.	.	6ff 6a-/
4r	.	4ryy	.	4c\	.	4f/	4a-/	.	.	.	.	.	.	.	.	.	4r	.
.	.	.	.	.	.	.	.	.	.	.	.	.	.	.	.	.	.	6f/
=20	=20	=20	=20	=20	=20	=20	=20	=20	=20	=20	=20	=20	=20	=20	=20	=20	=20	=20
4C/	.	4Cyy/	.	4r	.	4r	4r	.	2c\	Fi-	2f\	.	.	2g/	.	.	4c 4C\	6r
.	.	.	.	.	.	.	.	.	.	.	.	.	.	.	.	.	.	6ff 6b-/
4r	.	4ryy	.	4c\	.	4f/	4g/	.	.	.	.	.	.	.	.	.	4r	.
.	.	.	.	.	.	.	.	.	.	.	.	.	.	.	.	.	.	6f/
4C/	.	4Cyy/	.	4r	.	4r	4r	.	2C/	-li-	2en\	.	.	2g/	.	.	4c 4C\	6r
.	.	.	.	.	.	.	.	.	.	.	.	.	.	.	.	.	.	6een 6b-/
4r	.	4ryy	.	4c\	.	4en/	4g/	.	.	.	.	.	.	.	.	.	4r	.
.	.	.	.	.	.	.	.	.	.	.	.	.	.	.	.	.	.	6g/
*	*	*	*	*	*	*	*	*	*	*	*	*	*	*	*	*	*tuplet	*tuplet
4F\	.	4Fyy\	.	4r	.	4r	4r	.	1F	-us.	1f	.	.	1f	.	.	6F\	6f/
.	.	.	.	.	.	.	.	.	.	.	.	.	.	.	.	.	6A-\	6a-/
4r	.	4ryy	.	4F/	.	4f/	4f/	.	.	.	.	.	.	.	.	.	.	.
.	.	.	.	.	.	.	.	.	.	.	.	.	.	.	.	.	6c\	6cc/
4F\	.	4Fyy\	.	4r	.	4r	4r	.	.	.	.	.	.	.	.	.	4f\	4ff/
!	!	!	!	!	!	!	!	!	!	!	!	!	!	!	!	!	!	!LO:TX:t=P:problem:fermata na dwukresce
4r	.	4ryy	.	4F/	.	4f/	4f/	.	.	.	.	.	.	.	.	.	4r	4r
!!LO:TX:b:i:t=Fine
=21:|!;	=21:|!;	=21:|!;	=21:|!;	=21:|!;	=21:|!;	=21:|!;	=21:|!;	=21:|!;	=21:|!;	=21:|!;	=21:|!;	=21:|!;	=21:|!;	=21:|!;	=21:|!;	=21:|!;	=21:|!;	=21:|!;
!	!	!	!	!	!	!	!	!	!	!	!	!	!	!	!	!	!	!LO:TX:a:t=N°I Andante, Stabat Mater
0ryy	.	0ryy	.	0ryy	.	0ryy	0ryy	.	0ryy	.	0ryy	.	.	0ryy	.	.	6D-\	6d-/
.	.	.	.	.	.	.	.	.	.	.	.	.	.	.	.	.	6F\	6f/
.	.	.	.	.	.	.	.	.	.	.	.	.	.	.	.	.	6A-\	6a-/
.	.	.	.	.	.	.	.	.	.	.	.	.	.	.	.	.	6d-\	6dd-/
.	.	.	.	.	.	.	.	.	.	.	.	.	.	.	.	.	6f>\	6ff/
.	.	.	.	.	.	.	.	.	.	.	.	.	.	.	.	.	6a->\	6aa-/
.	.	.	.	.	.	.	.	.	.	.	.	.	.	.	.	.	2dd-> 2a-> 2f> 2d->\	2ddd- 2aa- 2ff/
.	.	.	.	.	.	.	.	.	.	.	.	.	.	.	.	.	2r	2r
=22	=22	=22	=22	=22	=22	=22	=22	=22	=22	=22	=22	=22	=22	=22	=22	=22	=22	=22
0ryy	.	0ryy	.	0ryy	.	0ryy	0ryy	.	0ryy	.	0ryy	.	.	0ryy	.	.	6E-\	6e-/
.	.	.	.	.	.	.	.	.	.	.	.	.	.	.	.	.	6G\	6g/
.	.	.	.	.	.	.	.	.	.	.	.	.	.	.	.	.	6B-\	6b-/
.	.	.	.	.	.	.	.	.	.	.	.	.	.	.	.	.	6e-\	6ee-/
.	.	.	.	.	.	.	.	.	.	.	.	.	.	.	.	.	6g>\	6gg/
.	.	.	.	.	.	.	.	.	.	.	.	.	.	.	.	.	6b->\	6bb-/
.	.	.	.	.	.	.	.	.	.	.	.	.	.	.	.	.	2b-> 2g> 2e->\	2bb- 2gg 2ee-/
.	.	.	.	.	.	.	.	.	.	.	.	.	.	.	.	.	2r	2r
=23	=23	=23	=23	=23	=23	=23	=23	=23	=23	=23	=23	=23	=23	=23	=23	=23	=23	=23
!!LO:PB:g=original
0ryy	.	0ryy	.	0ryy	.	0ryy	0ryy	.	0r	.	0r	.	.	0r	.	.	2B- 2BB-\	2dd- 2b- 2e-/
.	.	.	.	.	.	.	.	.	.	.	.	.	.	.	.	.	2r	2r
.	.	.	.	.	.	.	.	.	.	.	.	.	.	.	.	.	2E- 2EE-/	2cc 2a- 2e-/
.	.	.	.	.	.	.	.	.	.	.	.	.	.	.	.	.	2r	2r
=24	=24	=24	=24	=24	=24	=24	=24	=24	=24	=24	=24	=24	=24	=24	=24	=24	=24	=24
0ryy	.	0ryy	.	0ryy	.	0ryy	0ryy	.	0r	.	0r	.	.	0r	.	.	2B- 2G 2E-\	2b- 2g 2e-/
.	.	.	.	.	.	.	.	.	.	.	.	.	.	.	.	.	2r	2r
.	.	.	.	.	.	.	.	.	.	.	.	.	.	.	.	.	1r	1r
==	==	==	==	==	==	==	==	==	==	==	==	==	==	==	==	==	==	==
*-	*-	*-	*-	*-	*-	*-	*-	*-	*-	*-	*-	*-	*-	*-	*-	*-	*-	*-
!!!system-decoration: [({s1,s2}{s3,s4,s5}{s6,s7}s8{s9,s10})]
!!!ENC: Kamil Watkowski
!!!END: 2021-08-10
!!!RDF**kern: > = above
!!!RDF**kern: < = below
